icon-themes/sifr_svg/cmd/lc_accepttrackedchange.svg

<svg viewBox="0 0 24 24" xmlns="http://www.w3.org/2000/svg"><g fill="#555753"><path d="m3 2v21h12.568359l-2.048828-2h-8.519531v-17h8v5h5v8.435547l2-2.171875v-7.263672l-6-6zm3 4v2h4v-2zm0 4v2h4v-2zm6 0v2h4v-2zm-6 4v2h2v-2zm16.523438 0-5.523438 6-2.681641-2.490234-1.318359 1.585937 4 3.904297 7-7.576172z"/><path d="m10 14v2h6v-2zm-4 4v2h6v-2z" opacity=".35"/></g></svg>

<svg xmlns="http://www.w3.org/2000/svg" viewBox="0 0 24 24">
  <path
     style="fill:#555753"
     d="M 3 2 L 3 23 L 15.568359 23 L 13.519531 21 L 5 21 L 5 4 L 13 4 L 13 9 L 18 9 L 18 17.435547 L 20 15.263672 L 20 8 L 14 2 L 3 2 z M 6 6 L 6 8 L 10 8 L 10 6 L 6 6 z M 6 10 L 6 12 L 10 12 L 10 10 L 6 10 z M 12 10 L 12 12 L 16 12 L 16 10 L 12 10 z M 6 14 L 6 16 L 8 16 L 8 14 L 6 14 z M 22.523438 14 L 17 20 L 14.318359 17.509766 L 13 19.095703 L 17 23 L 24 15.423828 L 22.523438 14 z "
     />
  <path
     style="opacity:0.35;fill:#555753"
     d="m 10,14 v 2 h 6 v -2 z m -4,4 v 2 h 6 v -2 z"
     />
</svg>
